Increase/img/customers/03.svg

<svg width="117" height="23" viewBox="0 0 117 23" fill="none" xmlns="http://www.w3.org/2000/svg">
<path fill-rule="evenodd" clip-rule="evenodd" d="M115.316 20.0765C116.111 20.0765 116.744 20.7044 116.744 21.4915C116.744 22.2874 116.111 22.9065 115.309 22.9065C114.515 22.9065 113.87 22.2874 113.87 21.4915C113.87 20.7044 114.515 20.0765 115.309 20.0765H115.316ZM23.3761 22.7172H19.4415L19.2739 21.7533C17.4761 22.7172 15.8731 22.8747 14.8166 22.8747C11.9295 22.8747 10.394 21.0069 10.394 18.421C10.394 15.3717 12.1863 14.2822 15.3923 14.2822H18.6528V13.6242C18.6528 12.0678 18.4707 11.6114 15.9934 11.6114H11.9696L12.3649 7.79098H16.7784C22.1921 7.79098 23.3797 9.45358 23.3797 13.6561V22.7172H23.3761ZM81.9931 16.7266C81.9931 19.8395 80.6689 22.8587 75.1259 22.8587C69.5775 22.8587 68.2278 19.8395 68.2278 16.7266V13.7197C68.2278 10.6068 69.5757 7.58758 75.1241 7.58758C80.6798 7.58758 82.0095 10.6068 82.0095 13.7215V16.7283L81.9931 16.7266ZM97.1083 16.7266C97.1083 19.8395 95.7822 22.8587 90.2411 22.8587C84.6908 22.8587 83.3411 19.8395 83.3411 16.7266V13.7197C83.3411 10.6068 84.689 7.58758 90.2393 7.58758C95.7767 7.58758 97.1064 10.6068 97.1064 13.7215V16.7283L97.1083 16.7266ZM115.309 20.2994C114.672 20.2994 114.143 20.83 114.143 21.4897C114.143 22.1619 114.672 22.6889 115.316 22.6889C115.963 22.7066 116.482 22.176 116.482 21.5039C116.482 20.8495 115.963 20.3153 115.316 20.3153H115.309V20.2994ZM7.24451 22.6872H2.52673V11.615H0.166016V7.79452H2.52491V5.50402C2.52491 2.39107 3.85463 0.537445 7.63979 0.537445H10.791V4.35789H8.82378C7.34834 4.35789 7.24998 4.88851 7.24998 5.88607L7.23176 7.79629H10.802L10.383 11.6167H7.23358V22.6889L7.24451 22.6872ZM115.038 22.3157H114.779V20.7363C114.925 20.7186 115.052 20.7009 115.253 20.7009C115.502 20.7009 115.664 20.7487 115.763 20.8176C115.861 20.8884 115.908 20.9945 115.908 21.1448C115.908 21.3518 115.77 21.4774 115.599 21.5287V21.541C115.737 21.5658 115.835 21.6896 115.872 21.9231C115.908 22.1672 115.945 22.2627 115.97 22.3122H115.697C115.661 22.2627 115.619 22.1176 115.588 21.9125C115.551 21.7091 115.442 21.6348 115.238 21.6348H115.056V22.314L115.038 22.3157ZM115.038 21.4402H115.225C115.438 21.4402 115.619 21.3642 115.619 21.1696C115.619 21.0316 115.517 20.8937 115.225 20.8937C115.141 20.8937 115.08 20.899 115.038 20.9061V21.4402ZM15.1136 18.3626C15.1136 19.1975 15.5216 19.6308 16.4178 19.6308C17.3832 19.6308 17.9515 19.3266 18.6546 19.0118V17.3403H16.5489C15.5507 17.3403 15.1136 17.5172 15.1136 18.3609V18.3626ZM60.1821 11.4009C59.2166 11.4009 58.5244 11.7016 57.8213 12.02V19.0595C58.4953 19.1214 58.8815 19.1214 59.5226 19.1214C61.836 19.1214 62.1493 18.0956 62.1493 16.6629V13.2952C62.1493 12.2411 61.785 11.3903 60.1821 11.3903V11.4009ZM75.1096 11.4009C73.503 11.4009 72.9474 12.2499 72.9474 13.2935V17.1493C72.9474 18.2105 73.503 19.0595 75.1096 19.0595C76.7125 19.0595 77.2699 18.2105 77.2699 17.1493V13.2935C77.2699 12.2393 76.7052 11.3886 75.1023 11.3886L75.1096 11.4009ZM36.7534 11.8785C34.3053 11.4717 33.6022 11.3833 32.4255 11.3833C30.3088 11.3833 29.6695 11.8307 29.6695 13.5765V16.8663C29.6695 18.6085 30.307 19.0595 32.4255 19.0595C33.604 19.0595 34.3053 18.9711 36.7534 18.5643V22.2857C34.6095 22.7544 33.2124 22.8764 32.032 22.8764C26.9645 22.8764 24.9499 20.2941 24.9499 16.5621V13.8913C24.9499 10.1522 26.9645 7.56459 32.032 7.56459C33.2124 7.56459 34.6095 7.6884 36.7534 8.15711V11.8785ZM51.5261 16.5656H42.8702V16.8663C42.8702 18.6085 43.5077 19.0595 45.6243 19.0595C47.5278 19.0595 48.6845 18.9711 51.129 18.5643V22.2857C48.7738 22.7544 47.546 22.8764 45.2327 22.8764C40.1688 22.8764 38.1651 20.2941 38.1651 16.5621V13.5022C38.1651 10.2354 39.6588 7.55928 44.8502 7.55928C50.0507 7.55928 51.5352 10.2035 51.5352 13.5022V16.5621L51.5261 16.5656ZM90.2228 11.4009C88.6199 11.4009 88.0643 12.2499 88.0643 13.2988V17.1599C88.0643 18.2211 88.6199 19.0701 90.2228 19.0701C91.8258 19.0701 92.3905 18.2211 92.3905 17.1599V13.297C92.3905 12.2411 91.8258 11.3903 90.2228 11.3903V11.4009ZM112.622 22.6854H107.509L103.181 15.6813V22.6854H98.4635V1.67827L103.181 0.917721V14.4396L107.507 7.78921H112.608L107.881 15.041L112.604 22.6819L112.622 22.6854ZM44.8374 11.0118C43.2345 11.0118 42.8702 11.8608 42.8702 12.922V13.511H46.8047V12.9167C46.8047 11.8732 46.4404 11.0171 44.8374 11.0171V11.0118ZM66.8707 16.6364C66.8707 20.2446 65.796 22.88 59.3478 22.88C57.0235 22.88 55.6573 22.6783 53.089 22.2963V1.67473L57.8068 0.914183V8.12527C58.8268 7.75738 60.1474 7.57166 61.3497 7.57166C66.0674 7.57166 66.8507 9.62338 66.8507 12.9185V16.6505L66.8707 16.6364Z" fill="#D6DAE5"/>
</svg>

<svg width="117" height="23" fill="none" xmlns="http://www.w3.org/2000/svg"><path fill-rule="evenodd" clip-rule="evenodd" d="M115.316 20.076c.795 0 1.428.628 1.428 1.415 0 .796-.633 1.416-1.435 1.416a1.42 1.42 0 01-1.439-1.416c0-.787.645-1.415 1.439-1.415h.007zm-91.94 2.641h-3.934l-.168-.964a9.262 9.262 0 01-4.457 1.122c-2.887 0-4.423-1.868-4.423-4.454 0-3.05 1.792-4.139 4.998-4.139h3.26v-.658c0-1.556-.181-2.013-2.659-2.013H11.97l.395-3.82h4.413c5.414 0 6.602 1.663 6.602 5.865v9.061h-.004zm58.617-5.99c0 3.113-1.324 6.132-6.867 6.132-5.549 0-6.898-3.02-6.898-6.132V13.72c0-3.113 1.348-6.132 6.896-6.132 5.556 0 6.886 3.019 6.886 6.134v3.006l-.017-.001zm15.115 0c0 3.113-1.326 6.132-6.867 6.132-5.55 0-6.9-3.02-6.9-6.132V13.72c0-3.113 1.348-6.132 6.898-6.132 5.538 0 6.867 3.019 6.867 6.134v3.006l.002-.001zm18.201 3.572c-.637 0-1.166.531-1.166 1.19 0 .673.529 1.2 1.173 1.2.647.018 1.166-.513 1.166-1.185 0-.655-.519-1.189-1.166-1.189h-.007V20.3zM7.245 22.687H2.527V11.615H.166v-3.82h2.359V5.504c0-3.113 1.33-4.967 5.115-4.967h3.151v3.82H8.824c-1.476 0-1.574.532-1.574 1.53l-.018 1.91h3.57l-.419 3.82h-3.15v11.072l.012-.002zm107.793-.371h-.259v-1.58c.146-.017.273-.035.474-.035.249 0 .411.048.51.117.098.07.145.176.145.327 0 .207-.138.332-.309.384v.012c.138.025.236.149.273.382.036.244.073.34.098.39h-.273c-.036-.05-.078-.195-.109-.4-.037-.204-.146-.278-.35-.278h-.182v.679l-.018.002zm0-.876h.187c.213 0 .394-.076.394-.27 0-.138-.102-.276-.394-.276-.084 0-.145.005-.187.012v.534zm-99.924-3.077c0 .835.408 1.268 1.304 1.268.965 0 1.534-.304 2.237-.62v-1.67h-2.106c-.998 0-1.435.176-1.435 1.02v.002zM60.182 11.4c-.965 0-1.658.3-2.36.619v7.04c.673.061 1.06.061 1.7.061 2.314 0 2.627-1.025 2.627-2.458v-3.368c0-1.054-.364-1.905-1.967-1.905v.01zm14.928 0c-1.607 0-2.163.849-2.163 1.893v3.855c0 1.061.556 1.91 2.163 1.91 1.603 0 2.16-.849 2.16-1.91v-3.856c0-1.054-.565-1.904-2.168-1.904l.008.012zm-38.357.478c-2.448-.407-3.15-.496-4.328-.496-2.116 0-2.755.448-2.755 2.194v3.29c0 1.741.637 2.192 2.755 2.192 1.179 0 1.88-.088 4.328-.495v3.722c-2.144.468-3.54.59-4.721.59-5.067 0-7.082-2.582-7.082-6.314v-2.67c0-3.74 2.015-6.327 7.082-6.327 1.18 0 2.578.123 4.721.592v3.722zm14.773 4.687H42.87v.3c0 1.742.638 2.194 2.754 2.194 1.904 0 3.06-.089 5.505-.496v3.722c-2.355.468-3.583.59-5.896.59-5.064 0-7.068-2.582-7.068-6.314v-3.06c0-3.267 1.494-5.943 6.685-5.943 5.2 0 6.685 2.644 6.685 5.943v3.06l-.009.004zM90.223 11.4c-1.603 0-2.159.849-2.159 1.898v3.86c0 1.062.556 1.911 2.159 1.911 1.603 0 2.168-.849 2.168-1.91v-3.863c0-1.056-.565-1.907-2.168-1.907v.01zm22.399 11.284h-5.113l-4.328-7.004v7.004h-4.718V1.678l4.718-.76V14.44l4.326-6.65h5.101l-4.727 7.251 4.723 7.64.018.004zM44.837 11.012c-1.603 0-1.967.849-1.967 1.91v.589h3.935v-.594c0-1.044-.365-1.9-1.968-1.9v-.005zm22.034 5.624c0 3.609-1.075 6.244-7.523 6.244-2.325 0-3.69-.202-6.259-.584V1.675l4.718-.76v7.21c1.02-.368 2.34-.553 3.543-.553 4.717 0 5.5 2.051 5.5 5.346v3.733l.02-.015z" fill="#D6DAE5"/></svg>
